wordpress/wp-content/plugins/google-analytics-for-wordpress/lite/assets/vue/img/star-empty.svg

<svg width="19" height="17" viewBox="0 0 19 17" fill="none" xmlns="http://www.w3.org/2000/svg">
<path d="M9.44 1.14117L11.6605 5.69668L11.7809 5.94383L12.0542 5.97449L17.2575 6.5583L13.4307 9.90717L13.2106 10.0999L13.2707 10.3862L14.2938 15.2589L9.67405 12.8118L9.44 12.6878L9.20596 12.8118L4.58621 15.2589L5.60933 10.3862L5.66945 10.0999L5.44928 9.90717L1.62255 6.5583L6.82585 5.97449L7.09908 5.94383L7.21955 5.69668L9.44 1.14117Z" stroke="#AFB3BE"/>
</svg>

<svg width="19" height="17" fill="none" xmlns="http://www.w3.org/2000/svg"><path d="M9.44 1.141l2.22 4.556.12.247.274.03 5.204.584-3.827 3.35-.22.192.06.286 1.023 4.873-4.62-2.447-.234-.124-.234.124-4.62 2.447 1.023-4.873.06-.286-.22-.193-3.826-3.349 5.203-.584.273-.03.12-.247L9.44 1.14z" stroke="#AFB3BE"/></svg>
